icons/default/folder.svg

<?xml version="1.0" encoding="UTF-8"?>
<svg width="42px" height="42px" viewBox="0 0 42 42" version="1.1" xmlns="http://www.w3.org/2000/svg" xmlns:xlink="http://www.w3.org/1999/xlink">
    <!-- Generator: Sketch 44.1 (41455) - http://www.bohemiancoding.com/sketch -->
    <desc>Created with Sketch.</desc>
    <defs>
        <rect id="path-1" x="0" y="0" width="30" height="24" rx="2"></rect>
        <rect id="path-2" x="3" y="3" width="24" height="18" rx="1"></rect>
        <path d="M0,2.00494659 C0,0.897645164 0.892191789,0 1.99320024,0 L11.4115169,0 C11.9606232,0 12.5563742,0.431505203 12.7329865,0.9375 L14.1727753,5.0625 C14.3534965,5.58026695 14.9471688,6 15.4931737,6 L29.0068263,6 C29.555341,6 30,6.44494629 30,6.99339768 L30,22.0049107 C30,23.1067681 29.1021596,24 28.008383,24 L1.99161703,24 C0.891677316,24 0,23.1029738 0,21.9950534 L0,2.00494659 Z" id="path-3"></path>
    </defs>
    <g id="默认图标-(icons/default-5-10)" stroke="none" stroke-width="1" fill="none" fill-rule="evenodd">
        <g id="文件夹">
            <g id="Group" transform="translate(6.000000, 9.000000)">
                <g id="Rectangle">
                    <use fill="#DCB67A" fill-rule="evenodd" xlink:href="#path-1"></use>
                    <use fill-opacity="0.5" fill="#DCB67A" fill-rule="evenodd" style="mix-blend-mode: multiply;" xlink:href="#path-1"></use>
                    <rect stroke-opacity="0" stroke="#000000" stroke-width="1" x="0.5" y="0.5" width="29" height="23" rx="2"></rect>
                </g>
                <g id="Rectangle-2">
                    <use fill="#FFFFFF" fill-rule="evenodd" xlink:href="#path-2"></use>
                    <rect stroke-opacity="0" stroke="#000000" stroke-width="1" x="3.5" y="3.5" width="23" height="17" rx="1"></rect>
                </g>
                <g id="Rectangle">
                    <use fill="#DCB67A" fill-rule="evenodd" xlink:href="#path-3"></use>
                    <path stroke-opacity="0" stroke="#000000" stroke-width="1" d="M0.5,2.00494659 L0.5,21.9950534 C0.5,22.8273378 1.16833263,23.5 1.99161703,23.5 L28.008383,23.5 C28.8281898,23.5 29.5,22.828454 29.5,22.0049107 L29.5,6.99339768 C29.5,6.7209843 29.2790942,6.5 29.0068263,6.5 L15.4931737,6.5 C14.7338119,6.5 13.9512572,5.9451046 13.7007049,5.2272713 L12.2609161,1.1022713 C12.1527832,0.792470164 11.7431939,0.5 11.4115169,0.5 L1.99320024,0.5 C1.16906869,0.5 0.5,1.17305698 0.5,2.00494659 Z"></path>
                </g>
            </g>
        </g>
    </g>
</svg>

<svg viewBox="0 0 42 42" xmlns="http://www.w3.org/2000/svg" xmlns:xlink="http://www.w3.org/1999/xlink"><defs><rect id="a" width="30" height="24" rx="2"/><rect id="b" x="3" y="3" width="24" height="18" rx="1"/><path d="M0 2.005C0 .898.892 0 1.993 0h9.419c.549 0 1.144.432 1.321.938l1.44 4.125c.18.517.774.937 1.32.937h13.514c.548 0 .993.445.993.993v15.012A1.997 1.997 0 0 1 28.008 24H1.992C.892 24 0 23.103 0 21.995V2.005z" id="c"/></defs><g fill="none" fill-rule="evenodd"><g transform="translate(6 9)"><use fill="#DCB67A" xlink:href="#a"/><use fill-opacity=".5" fill="#DCB67A" style="mix-blend-mode:multiply" xlink:href="#a"/><rect x=".5" y=".5" width="29" height="23" rx="2"/></g><g transform="translate(6 9)"><use fill="#FFF" xlink:href="#b"/><rect x="3.5" y="3.5" width="23" height="17" rx="1"/></g><g transform="translate(6 9)"><use fill="#DCB67A" xlink:href="#c"/><path d="M.5 2.005v19.99c0 .832.668 1.505 1.492 1.505h26.016c.82 0 1.492-.672 1.492-1.495V6.993a.493.493 0 0 0-.493-.493H15.493c-.76 0-1.542-.555-1.792-1.273l-1.44-4.125C12.153.792 11.743.5 11.41.5H1.994C1.17.5.5 1.173.5 2.005z"/></g></g></svg>
